!!!OTL: Der Herr von Falkenstein (265), S. 565
!!!id: T0455
**kern
*clefG2
*k[]
*G:
{4d
=1
2g
2a
=2
4.b
8b
4b}
=3
{4b
=4
4a
4cc
4b
4a
=5
8g
8g
8g
8g
4g}
=6
{4a
=7
4.b
8a
4b
4cc
=8
2dd
4dd}
=9
{4dd
=10
4cc
4ee
4dd
4cc
=11
8b
8b
8b
8b
4b}
=12
{8g
8g
=13
4g
4d
4d}
=14
{8b
8b
=15
4b
4g
4g}
=16
{8dd
8dd
=17
2dd
2cc
=18
2b}
2r
=19
{4g
4a
4b
4g
=20
4a
4b
4cc}
4r
=21
{4a
4b
4cc
4a
=22
4b
4cc
4dd}
=23
{8b
8cc
=24
2dd
2cc
=25
2b}
4r
==
*-
!!!minrhy: 8
!!!meters: 4/4 ]  ZZ[10
!!!cut: Der Herr von Falkenstein (265), S. 565
!!!reg: Luxemburg
!!!trd: Singendes Volk, Esch-Alzette, 1937 posth.
!!!rhy1: X_  X__X__  X_.XX_
!!!rhy2: X_  X_X_X_X_  XXXXX_
!!!key: T0455  08  G 4/4 ]  ZZ[10
!!!mod: SECHSTONSKALA DUR ?]  AMBITUS[9
!!!kad: 3153-513453
!!!akz: 1233_2311_3355_4533_1-5_31_543_1324_2435_543_
!!!fot: 'a__b__c__bs_d__e__f__g__gs_fv_
!!!for: 'a__b__c__b__bw_bw_aw_bw_bw_aw_
!!!fok: '/__\__/__\__\__\__\__/__/__^__
!! PHRAS[VORWIEGEND AUFTAKTIG]
!!!fkt: Scherz-, Spiel-, Spottlied
!!!bem: aus dem Ösling, mitgeteilt: hhh Heinrich Godefroid (Lehrer)
!! THILL; Mathias
!! PR[52] 2K[0] 2G[12] 3K[0] 3G[0] 4A[12] 4Ü[0] 5A[2] 6K[0] 6G[0]
!! 7K[0] 7G[0] 8A[0] MEHR[0] SI[25] ABS[60] SR[12] SP[13]
!! ST[16] 2k[3] 2g[8] 3k[0] 3g[3] 4d[3] 4ü[0] 5d[5] 6k[0] 6g[0]
!! 7k[0] 7g[0] 8d[0] mehr[0] si[23] dm[+2] sr[12] sp[12]
!! 1F[29] 2F[59] 3F[11] 4F[0] LF[0] 2P[2] 3P[0] 4P[0] TRI[0] DF[4] AB[66]
!! TF[0] U3K[0] U3[0] U4[0] U4Ü[0] U5[43] U6K[0] U6[5] U7K[0] U7[3]
!! N1[33] N2K[0] N2[13] N3K[0] N3[3] N4[0] N4Ü[0] N5[0] N6K[0] N6[0]
!!!n7k: 0] N7[0] O1[0] O2K[0] O2[0] O3K[0] O3[0] HÖ[0
